src/24/actions/view-split-left-right.svg

<svg xmlns="http://www.w3.org/2000/svg" viewBox="0 0 24 24"><path d="M4 4v16h7V4H4zm8 0v16h8V4h-8zM5 8h5v11H5V8zm8 0h6v11h-6V8z" fill="currentColor" color="#5d656b"/></svg>

<svg xmlns="http://www.w3.org/2000/svg" viewBox="0 0 24 24">
  <defs id="defs3051">
    <style type="text/css" id="current-color-scheme">
      .ColorScheme-Text {
        color:#5d656b;
      }
      </style>
  </defs>
 <path style="fill:currentColor;fill-opacity:1;stroke:none" 
     d="M 4 4 L 4 20 L 11 20 L 11 19 L 11 8 L 11 4 L 4 4 z M 12 4 L 12 20 L 13 20 L 14 20 L 20 20 L 20 4 L 14 4 L 13 4 L 12 4 z M 5 8 L 10 8 L 10 19 L 5 19 L 5 8 z M 13 8 L 14 8 L 19 8 L 19 19 L 14 19 L 13 19 L 13 8 z "
     class="ColorScheme-Text"
     />
</svg>
